germany/municipalities/03459001.svg

<?xml version="1.0" encoding="UTF-8" standalone="no"?>
<!-- Created with Inkscape (http://www.inkscape.org/) -->
<svg
   xmlns:svg="http://www.w3.org/2000/svg"
   xmlns="http://www.w3.org/2000/svg"
   version="1.0"
   width="294.96399"
   height="377.61716"
   id="svg2472">
  <defs
     id="defs2475" />
  <g
     transform="translate(-9.8004729,-2.5204254)"
     id="g3854">
    <path
       d="M 302.19947,5.0854255 L 302.19947,220.59849 C 302.19947,307.47489 237.24171,377.57258 157.1368,377.57258 C 77.323248,377.57258 12.365473,307.47489 12.365473,220.59849 L 12.365473,5.0854255 L 302.19947,5.0854255"
       id="path523"
       style="opacity:1;fill:#e7e7e7;fill-opacity:1;fill-rule:evenodd;stroke:#000000;stroke-width:5.13000011;stroke-miterlimit:4;stroke-dasharray:none;stroke-opacity:1" />
    <path
       d="M 117.53992,227.39319 C 117.54178,227.39541 55.872285,287.31351 55.888677,287.29319 C 55.930282,287.24162 136.50129,259.21134 136.4818,259.19047 C 136.47089,259.17879 156.93781,346.92214 156.90991,346.84476 C 156.89765,346.81075 176.31197,258.80017 176.33447,258.89428 C 176.34791,258.95053 258.434,284.47325 258.41131,284.52313 C 258.36634,284.62196 194.04679,227.95425 194.0333,227.85054 C 194.02814,227.81082 257.86836,169.59568 257.88741,169.55934 C 257.90296,169.52971 177.94006,195.34458 177.95852,195.33223 C 178.00246,195.30283 157.12834,113.07032 157.14901,113.06981 C 157.1697,113.06931 138.41866,193.84891 138.40549,193.83608 C 138.35638,193.78825 57.325212,171.02835 57.30544,171.03641 C 57.276088,171.04799 117.65767,227.38826 117.53992,227.39319 z"
       id="path3822"
       style="fill:#da121a;fill-opacity:1;fill-rule:nonzero;stroke:#000000;stroke-width:4.98400021;marker-mid:none;stroke-miterlimit:4;stroke-dasharray:none;stroke-opacity:1" />
    <path
       d="M 13.02629,93.99351 C 13.02815,93.99573 301.83272,94.01438 301.81323,93.99351 C 301.80232,93.98183 301.76476,50.20725 301.73686,50.12987 C 301.7246,50.09586 267.72258,89.72191 267.74508,89.81602 C 267.75852,89.87227 231.20392,50.07999 231.18123,50.12987 C 231.13626,50.2287 193.97039,89.91973 193.9569,89.81602 C 193.95174,89.7763 157.53222,50.341832 157.55127,50.305492 C 157.56682,50.275862 120.21431,89.82837 120.23277,89.81602 C 120.27671,89.78662 83.52813,50.13038 83.5488,50.12987 C 83.56949,50.12937 45.602,89.82885 45.58883,89.81602 C 45.53972,89.76819 13.385174,50.12181 13.365402,50.12987 C 13.33605,50.14145 13.14404,93.98858 13.02629,93.99351 z"
       id="path3846"
       style="opacity:1;fill:#da121a;fill-opacity:1;fill-rule:nonzero;stroke:#000000;stroke-width:4.58400011;marker-mid:none;stroke-miterlimit:4;stroke-dasharray:none;stroke-opacity:1" />
    <path
       d="M 13.097871,6.0622291 C 13.099731,6.0600091 301.85626,6.0620506 301.88481,6.0622291 C 303.5449,6.0739091 265.70542,54.40147 265.72792,54.30736 C 265.74136,54.25111 230.02225,10.4936 229.99956,10.44372 C 229.95459,10.34489 192.78872,54.20365 192.77523,54.30736 C 192.77007,54.34708 158.4393,10.40738 158.45835,10.44372 C 158.4739,10.47335 120.28589,54.29501 120.30435,54.30736 C 120.34829,54.33676 84.01746,10.44321 84.03813,10.44372 C 84.05882,10.44422 46.09133,54.29453 46.07816,54.30736 C 46.02905,54.35519 11.7535,5.8582846 13.097871,6.0622291 z"
       id="path3852"
       style="opacity:1;fill:#da121a;fill-opacity:1;fill-rule:nonzero;stroke:#000000;stroke-width:4.58400011;stroke-linecap:butt;marker-mid:none;stroke-miterlimit:4;stroke-dasharray:none;stroke-opacity:1" />
  </g>
</svg>

<svg xmlns="http://www.w3.org/2000/svg" version="1.0" width="294.964" height="377.617"><path d="M302.2 5.085v215.513c0 86.877-64.958 156.975-145.063 156.975-79.814 0-144.772-70.098-144.772-156.975V5.085H302.2" style="opacity:1;fill:#e7e7e7;fill-opacity:1;fill-rule:evenodd;stroke:#000;stroke-width:5.13000011;stroke-miterlimit:4;stroke-dasharray:none;stroke-opacity:1" transform="translate(-9.8 -2.52)"/><path d="M117.54 227.393c.002.002-61.668 59.92-61.651 59.9.041-.051 80.612-28.082 80.593-28.103-.011-.011 20.456 87.732 20.428 87.655-.012-.034 19.402-88.045 19.424-87.95.014.056 82.1 25.578 82.077 25.628-.045.099-64.364-56.569-64.378-56.672-.005-.04 63.835-58.255 63.854-58.292.016-.03-79.947 25.786-79.928 25.773.043-.03-20.83-82.262-20.81-82.262.02 0-18.73 80.779-18.744 80.766-.049-.048-81.08-22.808-81.1-22.8-.029.012 60.353 56.352 60.235 56.357z" style="fill:#da121a;fill-opacity:1;fill-rule:nonzero;stroke:#000;stroke-width:4.98400021;marker-mid:none;stroke-miterlimit:4;stroke-dasharray:none;stroke-opacity:1" transform="translate(-9.8 -2.52)"/><path d="M13.026 93.994c.002.002 288.807.02 288.787 0-.01-.012-.048-43.787-.076-43.864-.012-.034-34.014 39.592-33.992 39.686.014.056-36.541-39.736-36.564-39.686-.045.099-37.21 39.79-37.224 39.686-.005-.04-36.425-39.474-36.406-39.51.016-.03-37.337 39.522-37.318 39.51.044-.03-36.705-39.686-36.684-39.686.02 0-37.947 39.699-37.96 39.686-.05-.048-32.204-39.694-32.224-39.686-.029.011-.221 43.859-.339 43.864z" style="opacity:1;fill:#da121a;fill-opacity:1;fill-rule:nonzero;stroke:#000;stroke-width:4.58400011;marker-mid:none;stroke-miterlimit:4;stroke-dasharray:none;stroke-opacity:1" transform="translate(-9.8 -2.52)"/><path d="M13.098 6.062c.002-.002 288.758 0 288.787 0 1.66.012-36.18 48.34-36.157 48.245.013-.056-35.706-43.813-35.728-43.863-.045-.1-37.211 43.76-37.225 43.863-.005.04-34.336-43.9-34.317-43.863.016.03-38.172 43.851-38.154 43.863.044.03-36.287-43.864-36.266-43.863.02 0-37.947 43.85-37.96 43.863-.049.048-34.325-48.449-32.98-48.245z" style="opacity:1;fill:#da121a;fill-opacity:1;fill-rule:nonzero;stroke:#000;stroke-width:4.58400011;stroke-linecap:butt;marker-mid:none;stroke-miterlimit:4;stroke-dasharray:none;stroke-opacity:1" transform="translate(-9.8 -2.52)"/></svg>
